icons/lock-open.svg

<svg width="24" height="24" viewBox="0 0 24 24" fill="none" xmlns="http://www.w3.org/2000/svg">
<path fill-rule="evenodd" clip-rule="evenodd" d="M8.99997 5C8.99997 4.44755 9.4476 4 9.99972 4H10.0037H10.0076H10.0115H10.0155H10.0194H10.0233H10.0273H10.0312H10.0351H10.0391H10.043H10.047H10.0509H10.0549H10.0588H10.0628H10.0667H10.0707H10.0746H10.0786H10.0825H10.0865H10.0905H10.0944H10.0984H10.1023H10.1063H10.1103H10.1142H10.1182H10.1222H10.1261H10.1301H10.1341H10.138H10.142H10.146H10.15H10.1539H10.1579H10.1619H10.1659H10.1698H10.1738H10.1778H10.1818H10.1858H10.1898H10.1937H10.1977H10.2017H10.2057H10.2097H10.2137H10.2177H10.2217H10.2257H10.2297H10.2337H10.2376H10.2416H10.2456H10.2496H10.2536H10.2576H10.2616H10.2656H10.2696H10.2736H10.2776H10.2816H10.2857H10.2897H10.2937H10.2977H10.3017H10.3057H10.3097H10.3137H10.3177H10.3217H10.3257H10.3297H10.3338H10.3378H10.3418H10.3458H10.3498H10.3538H10.3579H10.3619H10.3659H10.3699H10.3739H10.3779H10.382H10.386H10.39H10.394H10.398H10.4021H10.4061H10.4101H10.4141H10.4182H10.4222H10.4262H10.4302H10.4343H10.4383H10.4423H10.4464H10.4504H10.4544H10.4584H10.4625H10.4665H10.4705H10.4746H10.4786H10.4826H10.4866H10.4907H10.4947H10.4987H10.5028H10.5068H10.5108H10.5149H10.5189H10.5229H10.527H10.531H10.535H10.5391H10.5431H10.5471H10.5512H10.5552H10.5593H10.5633H10.5673H10.5714H10.5754H10.5794H10.5835H10.5875H10.5915H10.5956H10.5996H10.6037H10.6077H10.6117H10.6158H10.6198H10.6238H10.6279H10.6319H10.636H10.64H10.644H10.6481H10.6521H10.6561H10.6602H10.6642H10.6683H10.6723H10.6763H10.6804H10.6844H10.6884H10.6925H10.6965H10.7005H10.7046H10.7086H10.7127H10.7167H10.7207H10.7248H10.7288H10.7328H10.7369H10.7409H10.7449H10.749H10.753H10.757H10.7611H10.7651H10.7691H10.7732H10.7772H10.7812H10.7853H10.7893H10.7933H10.7974H10.8014H10.8054H10.8095H10.8135H10.8175H10.8215H10.8256H10.8296H10.8336H10.8377H10.8417H10.8457H10.8497H10.8538H10.8578H10.8618H10.8658H10.8699H10.8739H10.8779H10.8819H10.886H10.89H10.894H10.898H10.902H10.9061H10.9101H10.9141H10.9181H10.9221H10.9261H10.9302H10.9342H10.9382H10.9422H10.9462H10.9502H10.9542H10.9582H10.9623H10.9663H10.9703H10.9743H10.9783H10.9823H10.9863H10.9903H10.9943H10.9983H11.0023H11.0063H11.0103H11.0143H11.0183H11.0223H11.0263H11.0303H11.0343H11.0383H11.0423H11.0463H11.0503H11.0543H11.0583H11.0623H11.0663H11.0703H11.0743H11.0782H11.0822H11.0862H11.0902H11.0942H11.0982H11.1021H11.1061H11.1101H11.1141H11.1181H11.122H11.126H11.13H11.134H11.1379H11.1419H11.1459H11.1499H11.1538H11.1578H11.1618H11.1657H11.1697H11.1737H11.1776H11.1816H11.1855H11.1895H11.1935H11.1974H11.2014H11.2053H11.2093H11.2132H11.2172H11.2211H11.2251H11.229H11.233H11.2369H11.2409H11.2448H11.2487H11.2527H11.2566H11.2605H11.2645H11.2684H11.2724H11.2763H11.2802H11.2841H11.2881H11.292H11.2959H11.2998H11.3038H11.3077H11.3116H11.3155H11.3194H11.3234H11.3273H11.3312H11.3351H11.339H11.3429H11.3468H11.3507H11.3546H11.3585H11.3624H11.3663H11.3702H11.3741H11.378H11.3819H11.3858H11.3897H11.3936H11.3975H11.4013H11.4052H11.4091H11.413H11.4169H11.4207H11.4246H11.4285H11.4324H11.4362H11.4401H11.444H11.4478H11.4517H11.4556H11.4594H11.4633H11.4671H11.471H11.4748H11.4787H11.4825H11.4864H11.4902H11.4941H11.4979H11.5018H11.5056H11.5094H11.5133H11.5171H11.5209H11.5248H11.5286H11.5324H11.5362H11.5401H11.5439H11.5477H11.5515H11.5553H11.5591H11.5629H11.5667H11.5706H11.5744H11.5782H11.582H11.5858H11.5896H11.5933H11.5971H11.6009H11.6047H11.6085H11.6123H11.6161H11.6198H11.6236H11.6274H11.6312H11.6349H11.6387H11.6425H11.6462H11.65H11.6538H11.6575H11.6613H11.665H11.6688H11.6725H11.6763H11.68H11.6838H11.6875H11.6913H11.695H11.6987H11.7025H11.7062H11.7099H11.7136H11.7174H11.7211H11.7248H11.7285H11.7322H11.7359H11.7396H11.7434H11.7471H11.7508H11.7545H11.7582H11.7619H11.7655H11.7692H11.7729H11.7766H11.7803H11.784H11.7876H11.7913H11.795H11.7987H11.8023H11.806H11.8097H11.8133H11.817H11.8206H11.8243H11.8279H11.8316H11.8352H11.8389H11.8425H11.8461H11.8498H11.8534H11.857H11.8607H11.8643H11.8679H11.8715H11.8751H11.8788H11.8824H11.886H11.8896H11.8932H11.8968H11.9004H11.904H11.9076H11.9112H11.9147H11.9183H11.9219H11.9255H11.9291H11.9326H11.9362H11.9398H11.9433H11.9469H11.9505H11.954H11.9576H11.9611H11.9647H11.9682H11.9717H11.9753H11.9788H11.9824H11.9859H11.9894H11.9929H11.9965H12H12.0035H12.007H12.0105H12.0141H12.0176H12.0211H12.0247H12.0282H12.0317H12.0353H12.0388H12.0424H12.0459H12.0495H12.053H12.0566H12.0602H12.0637H12.0673H12.0709H12.0745H12.078H12.0816H12.0852H12.0888H12.0924H12.096H12.0996H12.1032H12.1068H12.1104H12.114H12.1176H12.1212H12.1248H12.1284H12.132H12.1357H12.1393H12.1429H12.1465H12.1502H12.1538H12.1574H12.1611H12.1647H12.1684H12.172H12.1757H12.1793H12.183H12.1866H12.1903H12.1939H12.1976H12.2013H12.2049H12.2086H12.2123H12.216H12.2197H12.2233H12.227H12.2307H12.2344H12.2381H12.2418H12.2455H12.2492H12.2529H12.2566H12.2603H12.264H12.2677H12.2714H12.2751H12.2789H12.2826H12.2863H12.29H12.2938H12.2975H12.3012H12.305H12.3087H12.3124H12.3162H12.3199H12.3237H12.3274H12.3312H12.3349H12.3387H12.3424H12.3462H12.3499H12.3537H12.3575H12.3612H12.365H12.3688H12.3725H12.3763H12.3801H12.3839H12.3877H12.3914H12.3952H12.399H12.4028H12.4066H12.4104H12.4142H12.418H12.4218H12.4256H12.4294H12.4332H12.437H12.4408H12.4446H12.4484H12.4523H12.4561H12.4599H12.4637H12.4675H12.4714H12.4752H12.479H12.4828H12.4867H12.4905H12.4944H12.4982H12.502H12.5059H12.5097H12.5136H12.5174H12.5213H12.5251H12.529H12.5328H12.5367H12.5405H12.5444H12.5483H12.5521H12.556H12.5598H12.5637H12.5676H12.5715H12.5753H12.5792H12.5831H12.587H12.5908H12.5947H12.5986H12.6025H12.6064H12.6103H12.6141H12.618H12.6219H12.6258H12.6297H12.6336H12.6375H12.6414H12.6453H12.6492H12.6531H12.657H12.6609H12.6649H12.6688H12.6727H12.6766H12.6805H12.6844H12.6883H12.6923H12.6962H12.7001H12.704H12.7079H12.7119H12.7158H12.7197H12.7237H12.7276H12.7315H12.7355H12.7394H12.7433H12.7473H12.7512H12.7551H12.7591H12.763H12.767H12.7709H12.7749H12.7788H12.7828H12.7867H12.7907H12.7946H12.7986H12.8025H12.8065H12.8104H12.8144H12.8184H12.8223H12.8263H12.8303H12.8342H12.8382H12.8421H12.8461H12.8501H12.8541H12.858H12.862H12.866H12.8699H12.8739H12.8779H12.8819H12.8859H12.8898H12.8938H12.8978H12.9018H12.9058H12.9097H12.9137H12.9177H12.9217H12.9257H12.9297H12.9337H12.9377H12.9416H12.9456H12.9496H12.9536H12.9576H12.9616H12.9656H12.9696H12.9736H12.9776H12.9816H12.9856H12.9896H12.9936H12.9976H13.0016H13.0056H13.0096H13.0136H13.0176H13.0216H13.0257H13.0297H13.0337H13.0377H13.0417H13.0457H13.0497H13.0537H13.0577H13.0618H13.0658H13.0698H13.0738H13.0778H13.0818H13.0859H13.0899H13.0939H13.0979H13.1019H13.1059H13.11H13.114H13.118H13.122H13.1261H13.1301H13.1341H13.1381H13.1422H13.1462H13.1502H13.1542H13.1583H13.1623H13.1663H13.1703H13.1744H13.1784H13.1824H13.1865H13.1905H13.1945H13.1985H13.2026H13.2066H13.2106H13.2147H13.2187H13.2227H13.2268H13.2308H13.2348H13.2389H13.2429H13.2469H13.251H13.255H13.259H13.2631H13.2671H13.2711H13.2752H13.2792H13.2832H13.2873H13.2913H13.2954H13.2994H13.3034H13.3075H13.3115H13.3155H13.3196H13.3236H13.3277H13.3317H13.3357H13.3398H13.3438H13.3478H13.3519H13.3559H13.3599H13.364H13.368H13.3721H13.3761H13.3801H13.3842H13.3882H13.3922H13.3963H13.4003H13.4044H13.4084H13.4124H13.4165H13.4205H13.4245H13.4286H13.4326H13.4367H13.4407H13.4447H13.4488H13.4528H13.4568H13.4609H13.4649H13.4689H13.473H13.477H13.481H13.4851H13.4891H13.4931H13.4972H13.5012H13.5052H13.5093H13.5133H13.5173H13.5214H13.5254H13.5294H13.5334H13.5375H13.5415H13.5455H13.5496H13.5536H13.5576H13.5616H13.5657H13.5697H13.5737H13.5778H13.5818H13.5858H13.5898H13.5938H13.5979H13.6019H13.6059H13.6099H13.614H13.618H13.622H13.626H13.63H13.6341H13.6381H13.6421H13.6461H13.6501H13.6541H13.6582H13.6622H13.6662H13.6702H13.6742H13.6782H13.6822H13.6862H13.6902H13.6943H13.6983H13.7023H13.7063H13.7103H13.7143H13.7183H13.7223H13.7263H13.7303H13.7343H13.7383H13.7423H13.7463H13.7503H13.7543H13.7583H13.7623H13.7663H13.7703H13.7743H13.7783H13.7823H13.7863H13.7902H13.7942H13.7982H13.8022H13.8062H13.8102H13.8142H13.8181H13.8221H13.8261H13.8301H13.8341H13.8381H13.842H13.846H13.85H13.854H13.8579H13.8619H13.8659H13.8698H13.8738H13.8778H13.8818H13.8857H13.8897H13.8936H13.8976H13.9016H13.9055H13.9095H13.9134H13.9174H13.9214H13.9253H13.9293H13.9332H13.9372H13.9411H13.9451H13.949H13.953H13.9569H13.9609H13.9648H13.9687H13.9727H13.9766H13.9806H13.9845H13.9884H13.9924H13.9963H14.0002C14.5523 4 15 4.44755 15 5V5.5C15 6.05228 15.4477 6.5 16 6.5C16.5523 6.5 17 6.05228 17 5.5V5C17 3.34331 15.6572 2 14.0002 2H13.9963H13.9924H13.9884H13.9845H13.9806H13.9766H13.9727H13.9687H13.9648H13.9609H13.9569H13.953H13.949H13.9451H13.9411H13.9372H13.9332H13.9293H13.9253H13.9214H13.9174H13.9134H13.9095H13.9055H13.9016H13.8976H13.8936H13.8897H13.8857H13.8818H13.8778H13.8738H13.8698H13.8659H13.8619H13.8579H13.854H13.85H13.846H13.842H13.8381H13.8341H13.8301H13.8261H13.8221H13.8181H13.8142H13.8102H13.8062H13.8022H13.7982H13.7942H13.7902H13.7863H13.7823H13.7783H13.7743H13.7703H13.7663H13.7623H13.7583H13.7543H13.7503H13.7463H13.7423H13.7383H13.7343H13.7303H13.7263H13.7223H13.7183H13.7143H13.7103H13.7063H13.7023H13.6983H13.6943H13.6902H13.6862H13.6822H13.6782H13.6742H13.6702H13.6662H13.6622H13.6582H13.6541H13.6501H13.6461H13.6421H13.6381H13.6341H13.63H13.626H13.622H13.618H13.614H13.6099H13.6059H13.6019H13.5979H13.5938H13.5898H13.5858H13.5818H13.5778H13.5737H13.5697H13.5657H13.5616H13.5576H13.5536H13.5496H13.5455H13.5415H13.5375H13.5334H13.5294H13.5254H13.5214H13.5173H13.5133H13.5093H13.5052H13.5012H13.4972H13.4931H13.4891H13.4851H13.481H13.477H13.473H13.4689H13.4649H13.4609H13.4568H13.4528H13.4488H13.4447H13.4407H13.4367H13.4326H13.4286H13.4245H13.4205H13.4165H13.4124H13.4084H13.4044H13.4003H13.3963H13.3922H13.3882H13.3842H13.3801H13.3761H13.3721H13.368H13.364H13.3599H13.3559H13.3519H13.3478H13.3438H13.3398H13.3357H13.3317H13.3277H13.3236H13.3196H13.3155H13.3115H13.3075H13.3034H13.2994H13.2954H13.2913H13.2873H13.2832H13.2792H13.2752H13.2711H13.2671H13.2631H13.259H13.255H13.251H13.2469H13.2429H13.2389H13.2348H13.2308H13.2268H13.2227H13.2187H13.2147H13.2106H13.2066H13.2026H13.1985H13.1945H13.1905H13.1865H13.1824H13.1784H13.1744H13.1703H13.1663H13.1623H13.1583H13.1542H13.1502H13.1462H13.1422H13.1381H13.1341H13.1301H13.1261H13.122H13.118H13.114H13.11H13.1059H13.1019H13.0979H13.0939H13.0899H13.0859H13.0818H13.0778H13.0738H13.0698H13.0658H13.0618H13.0577H13.0537H13.0497H13.0457H13.0417H13.0377H13.0337H13.0297H13.0257H13.0216H13.0176H13.0136H13.0096H13.0056H13.0016H12.9976H12.9936H12.9896H12.9856H12.9816H12.9776H12.9736H12.9696H12.9656H12.9616H12.9576H12.9536H12.9496H12.9456H12.9416H12.9377H12.9337H12.9297H12.9257H12.9217H12.9177H12.9137H12.9097H12.9058H12.9018H12.8978H12.8938H12.8898H12.8859H12.8819H12.8779H12.8739H12.8699H12.866H12.862H12.858H12.8541H12.8501H12.8461H12.8421H12.8382H12.8342H12.8303H12.8263H12.8223H12.8184H12.8144H12.8104H12.8065H12.8025H12.7986H12.7946H12.7907H12.7867H12.7828H12.7788H12.7749H12.7709H12.767H12.763H12.7591H12.7551H12.7512H12.7473H12.7433H12.7394H12.7355H12.7315H12.7276H12.7237H12.7197H12.7158H12.7119H12.7079H12.704H12.7001H12.6962H12.6923H12.6883H12.6844H12.6805H12.6766H12.6727H12.6688H12.6649H12.6609H12.657H12.6531H12.6492H12.6453H12.6414H12.6375H12.6336H12.6297H12.6258H12.6219H12.618H12.6141H12.6103H12.6064H12.6025H12.5986H12.5947H12.5908H12.587H12.5831H12.5792H12.5753H12.5715H12.5676H12.5637H12.5598H12.556H12.5521H12.5483H12.5444H12.5405H12.5367H12.5328H12.529H12.5251H12.5213H12.5174H12.5136H12.5097H12.5059H12.502H12.4982H12.4944H12.4905H12.4867H12.4828H12.479H12.4752H12.4714H12.4675H12.4637H12.4599H12.4561H12.4523H12.4484H12.4446H12.4408H12.437H12.4332H12.4294H12.4256H12.4218H12.418H12.4142H12.4104H12.4066H12.4028H12.399H12.3952H12.3914H12.3877H12.3839H12.3801H12.3763H12.3725H12.3688H12.365H12.3612H12.3575H12.3537H12.3499H12.3462H12.3424H12.3387H12.3349H12.3312H12.3274H12.3237H12.3199H12.3162H12.3124H12.3087H12.305H12.3012H12.2975H12.2938H12.29H12.2863H12.2826H12.2789H12.2751H12.2714H12.2677H12.264H12.2603H12.2566H12.2529H12.2492H12.2455H12.2418H12.2381H12.2344H12.2307H12.227H12.2233H12.2197H12.216H12.2123H12.2086H12.2049H12.2013H12.1976H12.1939H12.1903H12.1866H12.183H12.1793H12.1757H12.172H12.1684H12.1647H12.1611H12.1574H12.1538H12.1502H12.1465H12.1429H12.1393H12.1357H12.132H12.1284H12.1248H12.1212H12.1176H12.114H12.1104H12.1068H12.1032H12.0996H12.096H12.0924H12.0888H12.0852H12.0816H12.078H12.0745H12.0709H12.0673H12.0637H12.0602H12.0566H12.053H12.0495H12.0459H12.0424H12.0388H12.0353H12.0317H12.0282H12.0247H12.0211H12.0176H12.0141H12.0105H12.007H12.0035H12H11.9965H11.9929H11.9894H11.9859H11.9824H11.9788H11.9753H11.9717H11.9682H11.9647H11.9611H11.9576H11.954H11.9505H11.9469H11.9433H11.9398H11.9362H11.9326H11.9291H11.9255H11.9219H11.9183H11.9147H11.9112H11.9076H11.904H11.9004H11.8968H11.8932H11.8896H11.886H11.8824H11.8788H11.8751H11.8715H11.8679H11.8643H11.8607H11.857H11.8534H11.8498H11.8461H11.8425H11.8389H11.8352H11.8316H11.8279H11.8243H11.8206H11.817H11.8133H11.8097H11.806H11.8023H11.7987H11.795H11.7913H11.7876H11.784H11.7803H11.7766H11.7729H11.7692H11.7655H11.7619H11.7582H11.7545H11.7508H11.7471H11.7434H11.7396H11.7359H11.7322H11.7285H11.7248H11.7211H11.7174H11.7136H11.7099H11.7062H11.7025H11.6987H11.695H11.6913H11.6875H11.6838H11.68H11.6763H11.6725H11.6688H11.665H11.6613H11.6575H11.6538H11.65H11.6462H11.6425H11.6387H11.6349H11.6312H11.6274H11.6236H11.6198H11.6161H11.6123H11.6085H11.6047H11.6009H11.5971H11.5933H11.5896H11.5858H11.582H11.5782H11.5744H11.5706H11.5667H11.5629H11.5591H11.5553H11.5515H11.5477H11.5439H11.5401H11.5362H11.5324H11.5286H11.5248H11.5209H11.5171H11.5133H11.5094H11.5056H11.5018H11.4979H11.4941H11.4902H11.4864H11.4825H11.4787H11.4748H11.471H11.4671H11.4633H11.4594H11.4556H11.4517H11.4478H11.444H11.4401H11.4362H11.4324H11.4285H11.4246H11.4207H11.4169H11.413H11.4091H11.4052H11.4013H11.3975H11.3936H11.3897H11.3858H11.3819H11.378H11.3741H11.3702H11.3663H11.3624H11.3585H11.3546H11.3507H11.3468H11.3429H11.339H11.3351H11.3312H11.3273H11.3234H11.3194H11.3155H11.3116H11.3077H11.3038H11.2998H11.2959H11.292H11.2881H11.2841H11.2802H11.2763H11.2724H11.2684H11.2645H11.2605H11.2566H11.2527H11.2487H11.2448H11.2409H11.2369H11.233H11.229H11.2251H11.2211H11.2172H11.2132H11.2093H11.2053H11.2014H11.1974H11.1935H11.1895H11.1855H11.1816H11.1776H11.1737H11.1697H11.1657H11.1618H11.1578H11.1538H11.1499H11.1459H11.1419H11.1379H11.134H11.13H11.126H11.122H11.1181H11.1141H11.1101H11.1061H11.1021H11.0982H11.0942H11.0902H11.0862H11.0822H11.0782H11.0743H11.0703H11.0663H11.0623H11.0583H11.0543H11.0503H11.0463H11.0423H11.0383H11.0343H11.0303H11.0263H11.0223H11.0183H11.0143H11.0103H11.0063H11.0023H10.9983H10.9943H10.9903H10.9863H10.9823H10.9783H10.9743H10.9703H10.9663H10.9623H10.9582H10.9542H10.9502H10.9462H10.9422H10.9382H10.9342H10.9302H10.9261H10.9221H10.9181H10.9141H10.9101H10.9061H10.902H10.898H10.894H10.89H10.886H10.8819H10.8779H10.8739H10.8699H10.8658H10.8618H10.8578H10.8538H10.8497H10.8457H10.8417H10.8377H10.8336H10.8296H10.8256H10.8215H10.8175H10.8135H10.8095H10.8054H10.8014H10.7974H10.7933H10.7893H10.7853H10.7812H10.7772H10.7732H10.7691H10.7651H10.7611H10.757H10.753H10.749H10.7449H10.7409H10.7369H10.7328H10.7288H10.7248H10.7207H10.7167H10.7127H10.7086H10.7046H10.7005H10.6965H10.6925H10.6884H10.6844H10.6804H10.6763H10.6723H10.6683H10.6642H10.6602H10.6561H10.6521H10.6481H10.644H10.64H10.636H10.6319H10.6279H10.6238H10.6198H10.6158H10.6117H10.6077H10.6037H10.5996H10.5956H10.5915H10.5875H10.5835H10.5794H10.5754H10.5714H10.5673H10.5633H10.5593H10.5552H10.5512H10.5471H10.5431H10.5391H10.535H10.531H10.527H10.5229H10.5189H10.5149H10.5108H10.5068H10.5028H10.4987H10.4947H10.4907H10.4866H10.4826H10.4786H10.4746H10.4705H10.4665H10.4625H10.4584H10.4544H10.4504H10.4464H10.4423H10.4383H10.4343H10.4302H10.4262H10.4222H10.4182H10.4141H10.4101H10.4061H10.4021H10.398H10.394H10.39H10.386H10.382H10.3779H10.3739H10.3699H10.3659H10.3619H10.3579H10.3538H10.3498H10.3458H10.3418H10.3378H10.3338H10.3297H10.3257H10.3217H10.3177H10.3137H10.3097H10.3057H10.3017H10.2977H10.2937H10.2897H10.2857H10.2816H10.2776H10.2736H10.2696H10.2656H10.2616H10.2576H10.2536H10.2496H10.2456H10.2416H10.2376H10.2337H10.2297H10.2257H10.2217H10.2177H10.2137H10.2097H10.2057H10.2017H10.1977H10.1937H10.1898H10.1858H10.1818H10.1778H10.1738H10.1698H10.1659H10.1619H10.1579H10.1539H10.15H10.146H10.142H10.138H10.1341H10.1301H10.1261H10.1222H10.1182H10.1142H10.1103H10.1063H10.1023H10.0984H10.0944H10.0905H10.0865H10.0825H10.0786H10.0746H10.0707H10.0667H10.0628H10.0588H10.0549H10.0509H10.047H10.043H10.0391H10.0351H10.0312H10.0273H10.0233H10.0194H10.0155H10.0115H10.0076H10.0037H9.99972C8.3427 2 6.99997 3.34331 6.99997 5V8H5.14601C3.93231 8 3.0099 9.06521 3.14821 10.252C3.29602 11.5203 3.49997 13.5431 3.49997 15C3.49997 16.4569 3.29602 18.4797 3.14821 19.748C3.0099 20.9348 3.93231 22 5.14601 22H18.8539C20.0676 22 20.99 20.9348 20.8517 19.748C20.7039 18.4797 20.5 16.4569 20.5 15C20.5 13.5431 20.7039 11.5203 20.8517 10.252C20.99 9.06521 20.0676 8 18.8539 8H8.99997V5ZM5.13476 10.0205C5.13441 10.0175 5.13452 10.0157 5.1346 10.0149C5.13469 10.014 5.13487 10.0131 5.13518 10.0121C5.13588 10.01 5.13746 10.0068 5.14017 10.0038C5.14206 10.0016 5.14361 10.0005 5.14433 10.0001L5.14601 10H18.8539L18.8556 10.0001C18.8563 10.0005 18.8579 10.0016 18.8598 10.0038C18.8625 10.0068 18.8641 10.01 18.8648 10.0121C18.8651 10.0131 18.8653 10.014 18.8653 10.0149C18.8654 10.0157 18.8655 10.0175 18.8652 10.0205C18.7173 11.2894 18.5 13.4152 18.5 15C18.5 16.5848 18.7173 18.7106 18.8652 19.9795C18.8655 19.9825 18.8654 19.9843 18.8653 19.9851L18.8651 19.9866L18.8648 19.9879C18.8641 19.99 18.8625 19.9932 18.8598 19.9962C18.8579 19.9984 18.8563 19.9995 18.8556 19.9999L18.8539 20H5.14601L5.14433 19.9999C5.14361 19.9995 5.14206 19.9984 5.14017 19.9962C5.13746 19.9932 5.13588 19.99 5.13518 19.9879C5.13487 19.9869 5.13469 19.986 5.1346 19.9851C5.13452 19.9843 5.13441 19.9825 5.13476 19.9795C5.28264 18.7106 5.49997 16.5848 5.49997 15C5.49997 13.4152 5.28264 11.2894 5.13476 10.0205Z" fill="#333333"/>
</svg>

<svg xmlns="http://www.w3.org/2000/svg" width="24" height="24" fill="none" viewBox="0 0 24 24">
  <path fill="#333" fill-rule="evenodd" d="M9 5a1 1 0 011-1h4a1 1 0 011 1v.5a1 1 0 102 0V5a3 3 0 00-3-3h-4a3 3 0 00-3 3v3H5.146a2.017 2.017 0 00-1.998 2.252C3.296 11.52 3.5 13.543 3.5 15c0 1.457-.204 3.48-.352 4.748A2.017 2.017 0 005.146 22h13.708a2.017 2.017 0 001.998-2.252C20.704 18.48 20.5 16.457 20.5 15c0-1.457.204-3.48.352-4.748A2.017 2.017 0 0018.854 8H9V5zm-3.865 5.02v-.008a.025.025 0 01.01-.012h13.711l.004.004a.025.025 0 01.005.008.027.027 0 010 .008c-.148 1.27-.365 3.395-.365 4.98 0 1.585.217 3.71.365 4.98v.007a.025.025 0 01-.01.013H5.145l-.004-.004a.025.025 0 01-.005-.008v-.008c.148-1.27.365-3.395.365-4.98 0-1.585-.217-3.71-.365-4.98z"/>
</svg>
